X: 1322
T: Kız Bahçende Gül Var mı
C: (Anonim)
O: Turkey
F: http://compmusic.upf.edu/node/140
N: ferahnuma--turku--aksak--kiz_bahcende--kastamonu
N: makam= ferahnuma
N: form= turku
N: usul= aksak = 9/8
M: 9/8
L: 1/16
K: C _B _e  
Q: 1/4=112
%%MIDI tuningsystem comma53
^fe/f/ed/c/ d2de fe/f/ed/c/ d2d2 dd | \
w:  ARANAĞME  | 
^fe/f/ ed/c/d2 defe/f/ ed/c/d2 d2dd  | 
w:  ARANAĞME  | 
^fga2 fga2 fg/a/g/f/e de/c/d2 d2 | \
w:   | 
^fg a2fg a2fg/a/ g/f/ede/c/ d2d2  | 
w:   | 
z32  | cddddedcdcBAGAFG2FE3/2D/E/D/E/F/D3DdcBAGA | 
w:  |   | 
z18 | FG2FE3/2D/ E/D/E/F/D3D.D2 .D2.D2  | \
w:  |   | 
^fe/f/ed/c/ d2de fe/f/ed/c/ d2d2 d2 | 
w:   | 
z32 | c2d2d4d2e2g2^f3efe2dd4GABcd2  | \
w:  |  Kız  bah çen de  *  *  gül  *  var  *  *  mı   SAZ  | 
ccd2d2{e}dc(3ddcBAG2A3/2c/BAB/A/GG2d4cd.G.Bd2 | 
w:  Da lın *  da  *  *  *  bül *  *  *  *  *  bül  *  *  *  var  *  *  *  mı   SAZ  | 
cd3d2{e}dc(3ddcBAGAFG2FFEEDD4ze/d/f/d/e/c/de  | 
w:  Da lın da  *  *  *  bül *  *  *  *  *  *  bül  *  *  var  *  *  *  mı   SAZ  | 
z18  | ^fe/f/ed/c/ d2de fe/f/ed/c/ d2d2 dd | \
w:  |  SAZ  | 
^fe/f/ ed/c/d2 defe/f/ ed/c/d2 d2dd  | 
w:  SAZ  | 
z32  | cd3d4d2e2g2^f3efe2dd4GABcd2 | \
w:  |  Bu  ak şam  ge *  *  le *  ce *  *  ğim   SAZ  | 
ccd2d2dc(3ddcBAG2A3/2c/BAB/A/GG2d4cd.G.Bd2  | 
w:  Ten hâ *  lar *  *  da  *  *  *  *  *  yer  *  *  *  var  *  *  *  mı   SAZ  | 
cd3d2{e}dc(3ddcBAGAFG2FFEEDD4d3/2c/BAGA | 
w:  Ten hâ lar *  *  *  da  *  *  *  *  *  *  yer  *  *  var  *  *  *  mı   Hay *  din *  di   | 
z18 | FG2FE3/2D/ E/D/E/F/D3z(3ddc BAGA  | \
w:  |  sa ray  *  çeş *  me *  si *  ne   Ben  *  *  yan *  dım   | 
^fe/f/ed/c/ d2de fe/f/ed/c/ d2d2 dd | 
w:  ARANAĞME  | 
^fe/f/ ed/c/d2 defe/f/ ed/c/d2 d2dd  | \
w:  ARANAĞME  | 
^fga2 fga2 fg/a/g/f/e de/c/d2 d2 | 
w:   | 
^fg a2fg a2fg/a/ g/f/ede/c/ d2d2  | z32  | \
w:   |  | 
cddddedcdcBAGAFG2FE3/2D/E/D/E/F/D3DdcBAGA | 
w:   | 
z18 | FG2FE3/2D/ E/D/E/F/D3D.D2 .D2.D2  | \
w:  |   | 
^fe/f/ed/c/ d2de fe/f/ed/c/ d2d2 d2 | 
w:   | 
z32 | c2d2d4d2e2g2^f3efe2dd4GABcd2  | \
w:  |  Kız  bah çen de  *  *  gül  *  var  *  *  mı   SAZ  | 
ccd2d2{e}dc(3ddcBAG2A3/2c/BAB/A/GG2d4cd.G.Bd2 | 
w:  Da lın *  da  *  *  *  bül *  *  *  *  *  bül  *  *  *  var  *  *  *  mı   SAZ  | 
cd3d2{e}dc(3ddcBAGAFG2FFEEDD4ze/d/f/d/e/c/de  | 
w:  Da lın da  *  *  *  bül *  *  *  *  *  *  bül  *  *  var  *  *  *  mı   SAZ  | 
z18  | ^fe/f/ed/c/ d2de fe/f/ed/c/ d2d2 dd | \
w:  |  SAZ  | 
^fe/f/ ed/c/d2 defe/f/ ed/c/d2 d2dd  | 
w:  SAZ  | 
z32  | cd3d4d2e2g2^f3efe2dd4GABcd2 | \
w:  |  Bu  ak şam  ge *  *  le *  ce *  *  ğim   SAZ  | 
ccd2d2dc(3ddcBAG2A3/2c/BAB/A/GG2d4cd.G.Bd2  | 
w:  Ten hâ *  lar *  *  da  *  *  *  *  *  yer  *  *  *  var  *  *  *  mı   SAZ  | 
cd3d2{e}dc(3ddcBAGAFG2FFEEDD4d3/2c/BAGA | 
w:  Ten hâ lar *  *  *  da  *  *  *  *  *  *  yer  *  *  var  *  *  *  mı   Hay *  din *  di   | 
z18 | FG2FE3/2D/ E/D/E/F/D3z(3ddc BAGA  | \
w:  |  sa ray  *  çeş *  me *  si *  ne   Ben  *  *  yan *  dım   | 
FGGF E3/2D/E/D/E/F/ D4 A2A2 A2 | 
w:  ba KARAR dem  *  ez *  me *  si *  ne   SAZ  | 
|


